storage/app/icons/phosphoricons/fill/hospital-fill.svg

<svg xmlns="http://www.w3.org/2000/svg" fill="currentColor" viewBox="0 0 256 256"><path d="M248 208h-8v-80a16 16 0 0 0-16-16h-56V48a16 16 0 0 0-16-16H56a16 16 0 0 0-16 16v160h-8a8 8 0 0 0 0 16h216a8 8 0 0 0 0-16m-120 0H80v-48h48Zm0-104h-16v16a8 8 0 0 1-16 0v-16H80a8 8 0 0 1 0-16h16V72a8 8 0 0 1 16 0v16h16a8 8 0 0 1 0 16m96 104h-56v-80h56Z"/></svg>

<svg xmlns="http://www.w3.org/2000/svg" viewBox="0 0 256 256" fill="currentColor"><path d="M248,208h-8V128a16,16,0,0,0-16-16H168V48a16,16,0,0,0-16-16H56A16,16,0,0,0,40,48V208H32a8,8,0,0,0,0,16H248a8,8,0,0,0,0-16Zm-120,0H80V160h48Zm0-104H112v16a8,8,0,0,1-16,0V104H80a8,8,0,0,1,0-16H96V72a8,8,0,0,1,16,0V88h16a8,8,0,0,1,0,16Zm96,104H168V128h56Z"/></svg>
